X:223
T:Reel 223
M:4/4
K:Amin
L:1/8
ED|C>A, (3A,G,A, E>A, (3A,G,A, |C>A, (3A,^G,A, E>A, (3A,A,A |G>G, (3B,G,G, F>A, (3B,A,G |DB,G,B, DFED|C>A, (3A,A,A, E,A,A,B,|C>A, (3A,^G,A, E2FG|DGGE DB,G,B,|CA,B,^G, A,2||CD|EAAG AGAG|EDAB GFEG|EAA^G A2A=G|DB,G,B, D2:|ED|
